X:1
T:Sonate No.2, Op.22
T:Sonate No.2, Op.22
T:Call, Leonhard von (1767 - 1815)
C:Call, Leonhard von (1767 - 1815)
%%score ( 1 2 3 )
L:1/8
Q:3/8=40
M:6/8
K:C
V:1 treble-8 nm="Classical Guitar"
V:2 treble-8 
V:3 treble-8 
V:1
"^Adagio""_" [Ac]2 [Ac] [Ac]>dc | [^GB]2 [GB] [GB]2 z | [Bd]2 [Bd] [Bd]>ed | [Ac]2 [Ac] [Ac]2 z | %4
 [ce]2 [ce] [cea]2 [eg] | [Adf][Adf][Adf] [Adf]3/2(f/4e/4) (d/4c/4)(B/4A/4) | %6
 [^GB]/e/e/e/e/e/ [Ac]/e/d/c/B/A/ | ^G/B/e/^g/b/g/ e/d/c/B/A/G/ | [Ac]2 [Ac] [Ac]>dc | %9
 [^GB]2 [GB] [GB]2 z | [Bd]2 [Bd] [Bd]>ed | [Ac]2 [Ac] [Ac]2 z |"_" [Gce][Gce][Gce] [eg][df][ce] | %13
 [Ad][Ad][Ad] afd | [GB]/[Ac]/[Bd]/[ce]/[df]/[eg]/ [fa]2 [DGB] | [EGc][EGc][EGc] [EGc]2 z :| %16
x/^G/B/d/e/^g/ b/g/e/d/c/B/ | [Ac][^GB][Ac] [GB]"_"[GBe] z |x/^G/B/d/e/^g/ b/g/e/d/c/B/ | %19
 [Ac][^GB][Ac] [GB]"_"[GBe] z | [Ac][^GB][Ac] [GB]"_"[GBe] z | [Ac]2 [Ac] [Ac][^GB][Ac] | %22
 [^GB]2 z [Ac]2 z | [Bd]2 z [^GB]2 z |"_" [Ac]2 [Ac] [Ac]>dc | [^GB]2 [GB] [GB]2 z | %26
 [Bd]2 [Bd] [Bd]>ed | [Ac]2 [Ac] [Ac]2 z |"_" [ca][ca][ca] [Bd^g][Bdg] z | %29
 [Adf][Adf][Adf] [Ace][Ace] z | D/B/C/c/B,/d/ [Ace]c/e/a/g/ | [df][ce][Bd] [Ac][Bd][^GB] | %32
"_"x/A/c/e/a/e/ c'/a/e/c/A/c/ |"_" [^GBe][GBe][GBe] [Ac]2 z |"_"x/A/c/e/a/e/ c'/a/e/c/A/c/ | %35
"_" [^GBe][GBe][GBe] A2 z | [Bd^g][Bdg][Bdg] [cea]2 z | [^Gd][Gd][Gd] [Ac]2 z | %38
 [Bd^g][Bdg][Bdg] [cea]/g/f/e/d/c/ | [^GB][GB][GBe] A2 z || %40
[M:3/4]"^Menuetto""^con moto""_"[Q:1/4=132] [Ac]2 [Ac]2 [Ac]2 | e2 c2 A2 | [^GB]2 [GB]2 [GB]2 | %43
 [^GBe]3 d cB |"_" AxcAec | ae c'2 ba | ^gfedcB | A4 z2 ::"_" [Gce]2 [Gce]2 [Gce]2 | g2 e2 c2 | %50
 [Gd]2 [Gd]2 [Gd]2 | gfedcB | [Ac]2 [Ac]2 [Ac]2 | e2 c2 A2 | B2 B2 c2 | [^GB]2 [GBe]2 z2 | %56
 (3E,^GB (3E,GB (3E,GB |(3x^GB e2 z2 |"_""^calando" [^GB]2 [GB]2 [Ac]2 | %59
 [Ac][^GB] [Bd][Ac] !fermata![GB]2 |"_""^a tempo" EC=GEcG | ec g2 ec | B2 [GBf]2 [GBf]2 | %63
 [Gce]2 z2 z2 | AxcAec | ae c'2 ba | ^gfedcB | A4 z2!fine! ::[K:A][M:3/4]"^Trio""_" .c.e.c.e.c.e | %69
 AcAc- c2 | BdBd- d2 | AcAc- c2 |"_"(3xAc (3ecA (3E,Ac | (3A,Ac (3E,Ac (3A,Ac | %74
(3xBd (3edB E,/B/d/g/ | z2 [Aca]2 z2 ::"_"xGBeGB |xAceAc |(3xAB (3fBA B,/A/B/f/ |(3xGB e2 z2 | %80
"_" .c.e.c.e.A.c | AcAc-"_" c2 | BdBd-"_" d2 | AcAc-"_" c2 |"_"(3xAc (3ecA (3E,Ac | %85
 (3A,Ac (3E,Ac (3A,Ac |(3xBd (3edB E,/B/d/g/ | z2 [Aca]2 z2!D.C.! :| %88
[K:C][M:2/4]"_""^Andantino"[Q:1/4=80] e | cA^GE | Ace (f/e/) | .d/.c/.B/.A/ [^GB][Ac] | %92
 [Ac]2 [^GB]"_"=g | ecB=G | c2 d2 | [Gce] _B,/g/ A,/f/G,/e/ | [Ad][Gc] [Ad][DGB] | [EGc]2 [EGc]2 | %98
 [EGc]3 ::"_" e | [^GB][GB] [Ac][Ac] | [Bd]/e/^g/e/ b/g/e/d/ | [Ac][Ac] [Bd][Bd] | %103
 [ce]/x/c/e/ a/e/c/A,/ |"_" (3E,/^G/B/(3E,/G/B/ (3E,/A/c/(3E,/A/c/ | x e^ge | %106
 (3A,/A/c/ (3A,/A/c/ (3A,/B/d/ (3A,/B/d/ | x ac'a |"_" (3A,/A/d/ (3f/d/A/ (3A,/A/d/ (3A,/A/d/ | %109
 (3A,/A/c/ (3e/c/A/ (3A,/A/c/ (3A,/A/c/ |"_" (3E,/^G/B/ (3e/B/G/ (3E,/A/c/ (3e/c/A/ | %111
 (3E,/^G/B/ (3e/^g/b/ !fermata!E,"_" e | cA^GE | Ace (f/e/) | d/c/B/A/ [^GB][Ac] | [Ac]2 [^GB] e | %116
"_" cA^GE | A2 B2 | [Ac] C/e/ B,/d/A,/c/ | [Adf][Adf] [Bd^g][Bdg] |"_" x ac'a |"_" x ac'a | %122
"_" x efe |"_" x efe |"_" x ac'a |"_" x ac'a |"_" x efe |"_" x efe | %128
"_" (6:4:6A,/A/c/e/c/A/ (6:4:6A,/c/e/a/e/c/ | (6:4:6A,/c/e/c'/e/c/ (6:4:6A,/c/e/a/e/c/ | %130
 A, z"_" [cea] z | A,2 z :| %132
V:2
 A,2 A, A,3 | E,2 E, E,2 z | E,2 E, E,3 | A,2 A, A,2 z | A,2 A, A,3 | DDD D3 | E,3 E,3 | x6 | %8
 A,2 A, A,3 | E,2 E, E,2 z | E,2 E, E,3 | A,2 A, A,2 z | CCC z2 z | F,F,F, z2 z | G, z z z2 G, | %15
 CG,E, C2 z :| E,6 | E,E,E, E,E, z | E,6 | E,E,E, E,E, z | E,E,E, E,E, z | E,2 E, E,E,E, | %22
 E,2 z E,2 z | E,2 z E,2 z | A,2 A, A,3 | E,2 E, E,2 z | E,2 E, E,3 | A,2 A, A,2 z | %28
 A,A,A, A,A, z | A,A,A, A,A, z | DCB, A,/A,/- A,2 | D3 E,3 | A,6 | E,E,E, A,2 z | A,6 | %35
 E,E,E, A,2 z | E,E,E, A,2 z | E,E,E, A,2 z | E,E,E, A,3 | E,E,E, A,2 z ||[M:3/4] A,2 A,2 A,2 | %41
 x4 x2 | E,2 E,2 E,2 | E,6 | z A,- A,4 | z6 | x6 | z2 A,2 z2 :: C2 C2 C2 | x6 | B,2 B,2 B,2 | x6 | %52
 A,2 A,2 A,2 | x6 | ^GE, GE, AE, | E,2 E,2 z2 | E,2 E,2 E,2 | E,4 z2 | E,2 E,2 E,2 | %59
 E,E, E,E, E,2 | x6 | x6 | z2 G,2 G,2 | C2 z2 z2 | z A,3- A,2 | x6 | x6 | z2 A,2 z2 :: %68
[K:A][M:3/4] x6 | z2 z2 E,2 | z2 z2 E,2 | z2 z2 E,2 | A,4 E,2 | A,2 E,2 A,2 | E,4 E,2 | %75
 A,2 A,2 z2 :: E,6 | A,6 | B,4 B,2 | E,4 z2 | x6 | z2 z2 E,2 | z2 z2 E,2 | z2 z2 E,2 | A,4 E,2 | %85
 A,2 E,2 A,2 | E,4 E,2 | A,2 A,2 z2 :|[K:C][M:2/4] x | x4 | x4 | z2 E,E, | E,2 E, z | x4 | %94
 E/D/E/C/ B,/A,/B,/G,/ | C _B, A,G, | F,E, F,G, | C2 C2 | C3 :: z | E,E, E,E, | E,4 | A,A, A,A, | %103
 A,<A,- A,>A, | E,E, E,E, | E,4 | A,A, A,A, | A,4 | A,2 A,A, | A,2 A,A, | E,2 E,2 | E,2 E, z | x4 | %113
 x4 | z2 E,E, | E,2 E, z | x4 | C/B,/C/A,/ ^G,/^F,/G,/E,/ | A, C B,A, | DD E,E, | A,4 | A,4 | E,4 | %123
 E,4 | A,4 | A,4 | E,4 | E,4 | A,2 A,2 | A,2 A,2 | A, z A, z | A,2 z :| %132
V:3
 x6 | x6 | x6 | x6 | x6 | x6 | x6 | x6 | x6 | x6 | x6 | x6 | x6 | x6 | x6 | x6 :| x6 | x6 | x6 | %19
 x6 | x6 | x6 | x6 | x6 | x6 | x6 | x6 | x6 | x6 | x6 | x6 | x6 | x6 | x6 | x6 | x6 | x6 | x6 | %38
 x6 | x6 ||[M:3/4] x6 | x6 | x6 | x6 | x6 | x6 | x6 | x6 :: x6 | x6 | x6 | x6 | x6 | x6 | x6 | x6 | %56
 x6 | x6 | x6 | x6 | x6 | x6 | x6 | x6 | x6 | x6 | x6 | x6 ::[K:A][M:3/4] x6 | x6 | x6 | x6 | x6 | %73
 x6 | x6 | x6 :: x6 | x6 | x6 | x6 | x6 | x6 | x6 | x6 | x6 | x6 | x6 | x6 :|[K:C][M:2/4] x | x4 | %90
 x4 | x4 | x4 | x4 | x4 | x4 | x4 | x4 | x3 :: x | x4 | x4 | x4 | x4 | x4 | %105
(3x/B/d/(3x/d/B/ (3^g/d/B/ (3e/d/c/ | x4 |(3x/c/e/ (3a/e/c/ (3c'/e/c/ (3a/e/c/ | x4 | x4 | x4 | %111
 x4 | x4 | x4 | x4 | x4 | x4 | x4 | x4 | x4 |(3x/c/e/ (3a/e/c/ (3c'/e/c/ (3a/e/c/ | %121
(3x/c/e/ (3a/e/c/ (3c'/e/c/ (3a/e/c/ |(3x/^G/B/(3x/B/G/ (3f/B/G/ (3e/B/G/ | %123
(3x/^G/B/(3x/B/G/ (3f/B/G/ (3e/B/G/ |(3x/c/e/ (3a/e/c/ (3c'/e/c/ (3a/e/c/ | %125
(3x/c/e/ (3a/e/c/ (3c'/e/c/ (3a/e/c/ |(3x/^G/B/(3x/B/G/ (3f/B/G/ (3e/B/G/ | %127
(3x/^G/B/(3x/B/G/ (3f/B/G/ (3e/B/G/ | x4 | x4 | x4 | x3 :| %132

